public/logos/Milwaukee_Logo.svg

<svg height="467.00787" width="956.69287" xmlns="http://www.w3.org/2000/svg"><g fill="#c92a28" transform="translate(-573.990159 1834.150787)"><path d="m1495.25-1674.9702-233.3551 88.6362 13.5695-29.2607-316.24258 108.0706 17.51333-36.2298-367.2284 141.1427 275.73463-69.2177-22.59352 43.4998 341.84414-127.3071-19.5354 37.9183z"/><path d="m1443.0943-1782.3055c1.6544 0 3.2086-.1337 3.2086-2.139 0-1.6217-1.504-1.9051-2.8743-1.9051h-2.6738v4.0441zm-2.3395 7.3195h-2.0054v-13.0347h4.9967c3.0581 0 4.5788 1.1363 4.5788 3.6938 0 2.3383-1.4371 3.3744-3.3756 3.5923l3.6932 5.7486h-2.1892l-3.4592-5.6484h-2.2393zm2.3897 2.9078c5.1136 0 9.1744-4.0107 9.1744-9.4586 0-5.3476-4.0608-9.3917-9.1744-9.3917-5.1805 0-9.2246 4.0441-9.2246 9.3917 0 5.4479 4.0441 9.4586 9.2246 9.4586m-11.514-9.4586c0-6.4839 5.264-11.2807 11.514-11.2807 6.1664 0 11.4304 4.7968 11.4304 11.2807 0 6.5508-5.264 11.3636-11.4304 11.3636-6.25 0-11.514-4.8128-11.514-11.3636"/><path d="m815.43874-1744.7561-40.45779 34.1577s-16.09287-18.0815-17.34621-19.4853c-1.40374 1.2032-34.50861 29.278-34.50861 29.278l4.71255-46.6082-118.41549 99.7832 80.86545-38.8207-20.77201 174.3311s24.76598 18.3155 26.82146 19.7032c2.0889-16.6283 22.07548-176.3205 23.16171-185.009l.06684-.3516 23.41238-19.7526 4.97994 4.9131-18.83351 159.0237s25.16705 18.7834 26.77132 19.8689c.18383-1.5708 17.04542-145.6881 21.0561-180.0624l23.26198-19.6858 4.94651 4.8957-18.18177 155.0639 26.77132 19.7352 21.89166-188.7188z"/><path d="m881.16385-1709.8792-27.94111 4.746-3.45921 27.3729 27.90769-5.2807zm150.18345 11.4813-11.2299 86.9302-6.1999 6.6524-10.5113-8.7245 10.4445-81.7512-27.95782 6.8021-10.762 85.06-8.25533 10.996-8.82351-7.8035 10.49463-85.5961-28.05809 5.8663-9.37498 77.8408-11.63099 15.8088-8.20519-6.6511 18.11493-146.4743-27.38964 4.4292-16.89501 140.7242-13.93714 19.1845-6.91843-5.7487 11.59757-85.7778-27.95783 5.7152-12.95117 99.4155 24.61559 19.3008 24.23122-32.7379 25.31745 20.2553 24.38163-33.155 26.1363 22.7259 25.78537-34.1243 20.95584 18.4492 36.2466-39.3876 11.1296-83.1041zm66.3434 57.1509-11.28 13.8369-6.0327-5.1965 9.1911-72.3421 15.1905 8.0548zm245.688-103.5412 13.2185 15.373-16.4104 9.0414zm70.2705-14.373 12.1658 14.5227-15.0568 8.5227zm1.7881 57.0186-8.0548-6.7673 1.6544-13.2687 37.6002-21.274-30.3308-37.5668-27.657 24.1483-6.5007 52.1898-36.8481 20.286-8.7734-7.2018 1.8048-14.0374 40.8756-22.5441-32.9378-39.7553-30.0634 25.5842-6.3503 49.532-13.3522 12.9358-21.0227-41.5106 47.0921-42.9652-21.3736 3.1083-35.4611 30.1965 8.4725-67.6296-25.6349 3.5428-14.3048 115.842-15.5247 17.0614-3.6597-3.0748 9.3081-73.4945-27.6069 6.3329-8.623 66.4597-12.266 14.8396-5.2306-4.5455 9.258-72.8929-27.8074 5.5308-8.6063 68.1642-12.8676 16.3784-5.6484-4.9479 9.5923-76.1188-27.7406 5.9652-.635 5.9171-19.3683-9.3422-27.2225 34.7593-7.871 62.0814 26.3201 22.3769 24.1644-31.1496 20.7553 17.6309 22.6604-29.0948 19.4852 17.0615 21.3903-28.0414 20.3877 17.7138 27.6069-29.9959 21.0226 16.6604 6.3002-50.9183 22.1089 45.3542 29.3281-28.5762 19.0341 16.0254 56.701-31.3168 14.4886 12.5 52.0721-30.4465 1.4204-11.1804z"/></g></svg>

<?xml version="1.0" encoding="UTF-8" standalone="no"?>
<!-- Created with Inkscape (http://www.inkscape.org/) -->
<svg
   xmlns:svg="http://www.w3.org/2000/svg"
   xmlns="http://www.w3.org/2000/svg"
   version="1.0"
   width="956.69287"
   height="467.00787"
   id="svg2">
  <defs
     id="defs4" />
  <g
     transform="translate(-609.42319,1798.6825)"
     id="layer1">
    <g
       transform="translate(35.433031,35.468287)"
       id="g5330">
      <path
         d="M 1495.25,-1674.9702 L 1261.8949,-1586.334 L 1275.4644,-1615.5947 L 959.22182,-1507.5241 L 976.73515,-1543.7539 L 609.50675,-1402.6112 L 885.24138,-1471.8289 L 862.64786,-1428.3291 L 1204.492,-1555.6362 L 1184.9566,-1517.7179 L 1495.25,-1674.9702 z"
         id="path4685"
         style="fill:#c92a28;fill-opacity:1;fill-rule:nonzero;stroke:none" />
      <path
         d="M 1443.0943,-1782.3055 C 1444.7487,-1782.3055 1446.3029,-1782.4392 1446.3029,-1784.4445 C 1446.3029,-1786.0662 1444.7989,-1786.3496 1443.4286,-1786.3496 L 1440.7548,-1786.3496 L 1440.7548,-1782.3055 L 1443.0943,-1782.3055 z M 1440.7548,-1774.986 L 1438.7494,-1774.986 L 1438.7494,-1788.0207 L 1443.7461,-1788.0207 C 1446.8042,-1788.0207 1448.3249,-1786.8844 1448.3249,-1784.3269 C 1448.3249,-1781.9886 1446.8878,-1780.9525 1444.9493,-1780.7346 L 1448.6425,-1774.986 L 1446.4533,-1774.986 L 1442.9941,-1780.6344 L 1440.7548,-1780.6344 L 1440.7548,-1774.986 z M 1443.1445,-1772.0782 C 1448.2581,-1772.0782 1452.3189,-1776.0889 1452.3189,-1781.5368 C 1452.3189,-1786.8844 1448.2581,-1790.9285 1443.1445,-1790.9285 C 1437.964,-1790.9285 1433.9199,-1786.8844 1433.9199,-1781.5368 C 1433.9199,-1776.0889 1437.964,-1772.0782 1443.1445,-1772.0782 M 1431.6305,-1781.5368 C 1431.6305,-1788.0207 1436.8945,-1792.8175 1443.1445,-1792.8175 C 1449.3109,-1792.8175 1454.5749,-1788.0207 1454.5749,-1781.5368 C 1454.5749,-1774.986 1449.3109,-1770.1732 1443.1445,-1770.1732 C 1436.8945,-1770.1732 1431.6305,-1774.986 1431.6305,-1781.5368"
         id="path4689"
         style="fill:#c92a28;fill-opacity:1;fill-rule:nonzero;stroke:none" />
      <path
         d="M 815.43874,-1744.7561 L 774.98095,-1710.5984 C 774.98095,-1710.5984 758.88808,-1728.6799 757.63474,-1730.0837 C 756.231,-1728.8805 723.12613,-1700.8057 723.12613,-1700.8057 L 727.83868,-1747.4139 L 609.42319,-1647.6307 L 690.28864,-1686.4514 L 669.51663,-1512.1203 C 669.51663,-1512.1203 694.28261,-1493.8048 696.33809,-1492.4171 C 698.42699,-1509.0454 718.41357,-1668.7376 719.4998,-1677.4261 L 719.56664,-1677.7777 L 742.97902,-1697.5303 L 747.95896,-1692.6172 L 729.12545,-1533.5935 C 729.12545,-1533.5935 754.2925,-1514.8101 755.89677,-1513.7246 C 756.0806,-1515.2954 772.94219,-1659.4127 776.95287,-1693.787 L 800.21485,-1713.4728 L 805.16136,-1708.5771 L 786.97959,-1553.5132 L 813.75091,-1533.778 L 835.64257,-1722.4968 L 815.43874,-1744.7561 z"
         id="path4693"
         style="fill:#c92a28;fill-opacity:1;fill-rule:nonzero;stroke:none" />
      <path
         d="M 881.16385,-1709.8792 L 853.22274,-1705.1332 L 849.76353,-1677.7603 L 877.67122,-1683.041 L 881.16385,-1709.8792 z M 1031.3473,-1698.3979 L 1020.1174,-1611.4677 L 1013.9175,-1604.8153 L 1003.4062,-1613.5398 L 1013.8507,-1695.291 L 985.89288,-1688.4889 L 975.13088,-1603.4289 L 966.87555,-1592.4329 L 958.05204,-1600.2364 L 968.54667,-1685.8325 L 940.48858,-1679.9662 L 931.1136,-1602.1254 L 919.48261,-1586.3166 L 911.27742,-1592.9677 L 929.39235,-1739.442 L 902.00271,-1735.0128 L 885.1077,-1594.2886 L 871.17056,-1575.1041 L 864.25213,-1580.8528 L 875.8497,-1666.6306 L 847.89187,-1660.9154 L 834.9407,-1561.4999 L 859.55629,-1542.1991 L 883.78751,-1574.937 L 909.10496,-1554.6817 L 933.48659,-1587.8367 L 959.62289,-1565.1108 L 985.40826,-1599.2351 L 1006.3641,-1580.7859 L 1042.6107,-1620.1735 L 1053.7403,-1703.2776 L 1031.3473,-1698.3979 z M 1097.6907,-1641.247 L 1086.4107,-1627.4101 L 1080.378,-1632.6066 L 1089.5691,-1704.9487 L 1104.7596,-1696.8939 L 1097.6907,-1641.247 z M 1343.3787,-1744.7882 L 1356.5972,-1729.4152 L 1340.1868,-1720.3738 L 1343.3787,-1744.7882 z M 1413.6492,-1759.1612 L 1425.815,-1744.6385 L 1410.7582,-1736.1158 L 1413.6492,-1759.1612 z M 1415.4373,-1702.1426 L 1407.3825,-1708.9099 L 1409.0369,-1722.1786 L 1446.6371,-1743.4526 L 1416.3063,-1781.0194 L 1388.6493,-1756.8711 L 1382.1486,-1704.6813 L 1345.3005,-1684.3953 L 1336.5271,-1691.5971 L 1338.3319,-1705.6345 L 1379.2075,-1728.1786 L 1346.2697,-1767.9339 L 1316.2063,-1742.3497 L 1309.856,-1692.8177 L 1296.5038,-1679.8819 L 1275.4811,-1721.3925 L 1322.5732,-1764.3577 L 1301.1996,-1761.2494 L 1265.7385,-1731.0529 L 1274.211,-1798.6825 L 1248.5761,-1795.1397 L 1234.2713,-1679.2977 L 1218.7466,-1662.2363 L 1215.0869,-1665.3111 L 1224.395,-1738.8056 L 1196.7881,-1732.4727 L 1188.1651,-1666.013 L 1175.8991,-1651.1734 L 1170.6685,-1655.7189 L 1179.9265,-1728.6118 L 1152.1191,-1723.081 L 1143.5128,-1654.9168 L 1130.6452,-1638.5384 L 1124.9968,-1643.4863 L 1134.5891,-1719.6051 L 1106.8485,-1713.6399 L 1106.2135,-1707.7228 L 1086.8452,-1717.065 L 1059.6227,-1682.3057 L 1051.7517,-1620.2243 L 1078.0718,-1597.8474 L 1102.2362,-1628.997 L 1122.9915,-1611.3661 L 1145.6519,-1640.4609 L 1165.1371,-1623.3994 L 1186.5274,-1651.4408 L 1206.9151,-1633.727 L 1234.522,-1663.7229 L 1255.5446,-1647.0625 L 1261.8448,-1697.9808 L 1283.9537,-1652.6266 L 1313.2818,-1681.2028 L 1332.3159,-1665.1774 L 1389.0169,-1696.4942 L 1403.5055,-1683.9942 L 1455.5776,-1714.4407 L 1456.998,-1725.6211 L 1415.4373,-1702.1426 z"
         id="path4697"
         style="fill:#c92a28;fill-opacity:1;fill-rule:nonzero;stroke:none" />
    </g>
  </g>
</svg>
